brandFactory_export/3.Masa/Abrir archivo_3Masa.svg

<?xml version="1.0" encoding="UTF-8"?>
<svg width="24px" height="24px" viewBox="0 0 24 24" version="1.1" xmlns="http://www.w3.org/2000/svg" xmlns:xlink="http://www.w3.org/1999/xlink">
    <title>3.Masa/Abrir archivo_3Masa</title>
    <g id="Symbols" stroke="none" stroke-width="1" fill="none" fill-rule="evenodd">
        <g id="3.Masa/Abrir-archivo_3Masa" fill="#5CB615" fill-rule="nonzero">
            <path d="M1.69747899,4.52941176 L9.05210084,4.52941176 C9.17983193,4.52941176 9.26722689,4.60672269 9.26722689,4.67731092 L9.26722689,5.91092437 C9.26722689,6.32436975 9.6,6.6605042 10.010084,6.6605042 L19.2773109,6.6605042 C19.405042,6.6605042 19.492437,6.73781513 19.492437,6.86554622 L19.5697479,7.89747899 L19.5697479,7.90084034 L4.3092437,7.90084034 C3.44537815,7.90084034 2.73613445,8.58655462 2.69579832,9.44705882 L2.02689076,13.0705882 L1.48571429,4.67731092 C1.48571429,4.61008403 1.5697479,4.52941176 1.69747899,4.52941176 Z M22.0067227,7.90420168 L21.0386555,7.90420168 C21.0420168,7.86386555 21.0554622,7.82689076 21.0521008,7.78655462 L20.9747899,6.81176471 C20.9747899,5.90084034 20.2117647,5.16134454 19.2739496,5.16134454 L10.7529412,5.16134454 L10.7529412,4.68067227 C10.7529412,3.7697479 9.98991597,3.03020703 9.05210084,3.03020703 L1.69747899,3.03020703 C0.766386555,3.02352941 0.00672268908,3.7697479 0,4.69747899 L0,4.72773109 L0.924369748,19.0672269 C0.924369748,19.0840336 0.921008403,19.1008403 0.921008403,19.1210084 C0.921008403,20.0151261 1.64705882,20.7478992 2.53781513,20.7478992 L20.2621849,20.7478992 C21.1260504,20.7478992 21.8352941,20.0588235 21.8756303,19.2016807 L23.6134454,9.66554622 C23.6235294,9.62184874 23.6268908,9.57478992 23.6268908,9.52773109 C23.6235294,8.6302521 22.897479,7.90420168 22.0067227,7.90420168 L22.0067227,7.90420168 Z" id="Abrir-archivo_3Masa"></path>
        </g>
    </g>
</svg>

<svg width="24" height="24" viewBox="0 0 24 24" xmlns="http://www.w3.org/2000/svg"><path d="M1.697 4.53h7.355c.128 0 .215.077.215.147v1.234c0 .413.333.75.743.75h9.267c.128 0 .215.077.215.205l.078 1.031v.004H4.31a1.62 1.62 0 00-1.614 1.546l-.67 3.624-.54-8.394c0-.067.084-.148.211-.148zm20.31 3.374h-.968c.003-.04.016-.077.013-.117l-.077-.975c0-.911-.763-1.65-1.701-1.65h-8.521V4.68c0-.911-.763-1.65-1.7-1.65H1.696A1.682 1.682 0 000 4.696v.03l.924 14.34c0 .017-.003.034-.003.054 0 .894.726 1.627 1.617 1.627h17.724c.864 0 1.573-.69 1.614-1.546l1.737-9.536a.619.619 0 00.014-.138 1.626 1.626 0 00-1.62-1.624z" fill="#5CB615" fill-rule="nonzero"/></svg>
